common/src/main/resources/icons/plugins/resharper/VsIntegration/Keyboard.svg

<svg xmlns="http://www.w3.org/2000/svg" width="16" height="16" data-big="true" viewBox="0 0 24 24"><path fill="#7986CB" d="M19 10h-2V8h2m0 5h-2v-2h2m-3-1h-2V8h2m0 5h-2v-2h2m0 6H8v-2h8m-9-5H5V8h2m0 5H5v-2h2m1 0h2v2H8m0-5h2v2H8m3 1h2v2h-2m0-5h2v2h-2m9-5H4c-1.11 0-2 .89-2 2v10a2 2 0 0 0 2 2h16a2 2 0 0 0 2-2V7a2 2 0 0 0-2-2"/></svg>

<!--
  - The MIT License (MIT)
  -
  - Copyright (c) 2015-2024 Elior "Mallowigi" Boukhobza
  -
  - Permission is hereby granted, free of charge, to any person obtaining a copy
  - of this software and associated documentation files (the "Software"), to deal
  - in the Software without restriction, including without limitation the rights
  - to use, copy, modify, merge, publish, distribute, sublicense, and/or sell
  - copies of the Software, and to permit persons to whom the Software is
  - furnished to do so, subject to the following conditions:
  -
  - The above copyright notice and this permission notice shall be included in all
  - copies or substantial portions of the Software.
  -
  - THE SOFTWARE IS PROVIDED "AS IS", WITHOUT WARRANTY OF ANY KIND, EXPRESS OR
  - IMPLIED, INCLUDING BUT NOT LIMITED TO THE WARRANTIES OF MERCHANTABILITY,
  - FITNESS FOR A PARTICULAR PURPOSE AND NONINFRINGEMENT. IN NO EVENT SHALL THE
  - AUTHORS OR COPYRIGHT HOLDERS BE LIABLE FOR ANY CLAIM, DAMAGES OR OTHER
  - LIABILITY, WHETHER IN AN ACTION OF CONTRACT, TORT OR OTHERWISE, ARISING FROM,
  - OUT OF OR IN CONNECTION WITH THE SOFTWARE OR THE USE OR OTHER DEALINGS IN THE
  - SOFTWARE.
  -->


<svg data-big="true" xmlns="http://www.w3.org/2000/svg" version="1.1" width="16px" height="16px" viewBox="0 0 24 24">
  <path fill="#7986CB"
        d="M19,10H17V8H19M19,13H17V11H19M16,10H14V8H16M16,13H14V11H16M16,17H8V15H16M7,10H5V8H7M7,13H5V11H7M8,11H10V13H8M8,8H10V10H8M11,11H13V13H11M11,8H13V10H11M20,5H4C2.89,5 2,5.89 2,7V17A2,2 0 0,0 4,19H20A2,2 0 0,0 22,17V7C22,5.89 21.1,5 20,5Z"/>
</svg>
